_site/assets/img/cursor-pointer.svg

<svg width="60" height="64" viewBox="0 0 60 64" fill="none" xmlns="http://www.w3.org/2000/svg">
            <g filter="url(#filter0_d)">
            <path d="M27.7368 26.2464C27.7368 26.2464 27.1216 15.2334 25.2758 10.8959C23.3993 6.46607 21.2459 6.71217 19.4617 7.35818C16.7546 8.31182 17.1853 13.5722 17.9236 16.4947C18.9387 20.4015 19.5848 24.8928 21.369 32.8911C21.369 32.8911 18.9695 29.1073 16.7238 27.3846C14.4782 25.6619 10.3868 26.2464 9.43312 28.3383C8.47948 30.4301 9.21778 32.4604 10.5098 34.2754C11.8018 36.0904 13.6168 37.2594 15.1242 39.9357C16.6316 42.6121 17.216 44.6424 19.8309 46.7343C22.4149 48.8261 24.3837 49.9336 24.3837 51.5948V54.025L24.476 54.1173H46.2251C46.2251 46.7035 47.5479 45.6268 50.1628 42.1814C52.7776 38.736 52.8083 31.9682 52.8083 26.7078C52.8083 24.1853 52.07 22.5857 49.3014 22.5857C46.1944 22.5857 45.979 26.2464 45.979 26.2464C45.7637 22.8933 45.3023 19.5709 40.7186 19.5709C36.135 19.5709 36.781 26.0311 36.781 26.0311C36.781 23.1086 36.658 18.7711 31.6745 18.7711C26.6909 18.7711 27.7368 26.2464 27.7368 26.2464Z" fill="white" stroke="black" stroke-width="2" stroke-miterlimit="10" stroke-linecap="round" stroke-linejoin="round"/>
            <path d="M30.69 34.3678V44.9194" stroke="black" stroke-width="2" stroke-miterlimit="10" stroke-linecap="round" stroke-linejoin="round"/>
            <path d="M36.5964 34.3678V44.9194" stroke="black" stroke-width="2" stroke-miterlimit="10" stroke-linecap="round" stroke-linejoin="round"/>
            <path d="M42.5337 34.3678V44.9194" stroke="black" stroke-width="2" stroke-miterlimit="10" stroke-linecap="round" stroke-linejoin="round"/>
            </g>
            <defs>
            <filter id="filter0_d" x="-4" y="0" width="68" height="68" filterUnits="userSpaceOnUse" color-interpolation-filters="sRGB">
            <feFlood flood-opacity="0" result="BackgroundImageFix"/>
            <feColorMatrix in="SourceAlpha" type="matrix" values="0 0 0 0 0 0 0 0 0 0 0 0 0 0 0 0 0 0 127 0"/>
            <feOffset dy="4"/>
            <feGaussianBlur stdDeviation="2"/>
            <feColorMatrix type="matrix" values="0 0 0 0 0 0 0 0 0 0 0 0 0 0 0 0 0 0 0.5 0"/>
            <feBlend mode="normal" in2="BackgroundImageFix" result="effect1_dropShadow"/>
            <feBlend mode="normal" in="SourceGraphic" in2="effect1_dropShadow" result="shape"/>
            </filter>
            </defs>
            </svg>

<svg fill="none" height="64" width="60" xmlns="http://www.w3.org/2000/svg" xmlns:xlink="http://www.w3.org/1999/xlink"><filter id="a" color-interpolation-filters="sRGB" filterUnits="userSpaceOnUse" height="68" width="68" x="-4" y="0"><feFlood flood-opacity="0" result="BackgroundImageFix"/><feColorMatrix in="SourceAlpha" values="0 0 0 0 0 0 0 0 0 0 0 0 0 0 0 0 0 0 127 0"/><feOffset dy="4"/><feGaussianBlur stdDeviation="2"/><feColorMatrix values="0 0 0 0 0 0 0 0 0 0 0 0 0 0 0 0 0 0 0.5 0"/><feBlend in2="BackgroundImageFix" result="effect1_dropShadow"/><feBlend in="SourceGraphic" in2="effect1_dropShadow" result="shape"/></filter><g style="stroke:#000;stroke-width:2;stroke-miterlimit:10;stroke-linecap:round;stroke-linejoin:round;filter:url(#a)"><path d="m27.737 26.246s-.615-11.013-2.461-15.35c-1.877-4.43-4.03-4.184-5.814-3.538-2.707.954-2.277 6.214-1.538 9.137 1.015 3.906 1.66 8.398 3.445 16.396 0 0-2.4-3.784-4.645-5.506-2.246-1.723-6.337-1.139-7.29.953-.955 2.092-.216 4.122 1.076 5.937s3.107 2.984 4.614 5.66c1.508 2.677 2.092 4.707 4.707 6.8 2.584 2.091 4.553 3.199 4.553 4.86v2.43l.092.092h21.75c0-7.413 1.322-8.49 3.937-11.936 2.615-3.445 2.645-10.213 2.645-15.473 0-2.523-.738-4.122-3.507-4.122-3.107 0-3.322 3.66-3.322 3.66-.215-3.353-.677-6.675-5.26-6.675-4.584 0-3.938 6.46-3.938 6.46 0-2.922-.123-7.26-5.107-7.26-4.983 0-3.937 7.475-3.937 7.475z" fill="#fff"/><path d="m30.69 34.368v10.551m5.906-10.551v10.551m5.938-10.551v10.551"/></g></svg>
